img/PlatON-logo.svg

<?xml version="1.0" encoding="UTF-8"?>
<svg width="80px" height="26px" viewBox="0 0 80 26" version="1.1" xmlns="http://www.w3.org/2000/svg" xmlns:xlink="http://www.w3.org/1999/xlink">
    <!-- Generator: Sketch 61.2 (89653) - https://sketch.com -->
    <title>PlatON-logo</title>
    <desc>Created with Sketch.</desc>
    <g id="官网-文档页面规则" stroke="none" stroke-width="1" fill="none" fill-rule="evenodd">
        <g id="画板" transform="translate(-69.000000, -37.000000)">
            <g id="PlatON-logo" transform="translate(69.000000, 37.000000)">
                <path d="M56.732709,13.733904 L56.732709,13.7279441 L56.732709,12.0709147 L54.5938906,12.0698629 L54.5912648,9.78914685 L54.5812867,9.78914685 L52.678442,9.78914685 L52.6787921,16.7601343 C52.6787921,18.3787748 53.6634748,19.3844214 55.2485952,19.3844214 L56.9945908,19.3844214 L56.9945908,17.6429016 L55.2029059,17.6429016 C54.7304333,17.6429016 54.5938906,17.504772 54.5938906,17.0265772 L54.5938906,13.733904 L56.732709,13.733904 Z" id="Fill-1" fill="#FEFEFE"></path>
                <path d="M63.93593,17.5367276 C61.8137418,17.5367276 60.0873523,15.8129123 60.0873523,13.6941654 C60.0873523,11.5754186 61.8137418,9.85160317 63.93593,9.85160317 C66.0582932,9.85160317 67.7846827,11.5754186 67.7846827,13.6941654 C67.7846827,15.8129123 66.0582932,17.5367276 63.93593,17.5367276 M63.93593,8.00368149 C60.6694092,8.00368149 58.0113786,10.5564498 58.0113786,13.6941654 C58.0113786,16.831881 60.6694092,19.384474 63.93593,19.384474 C67.2026258,19.384474 69.8606565,16.831881 69.8606565,13.6941654 C69.8606565,10.5564498 67.2026258,8.00368149 63.93593,8.00368149" id="Fill-3" fill="#FEFEFE"></path>
                <polygon id="Fill-5" fill="#FEFEFE" points="77.919965 8.00371655 77.919965 15.4416802 72.4897681 8.00371655 71.0012779 8.00371655 71.0012779 19.3713622 71.0025033 19.3713622 71.0172079 19.3713622 72.9610153 19.3713622 72.9708184 11.751972 78.3941882 19.3713622 79.8893304 19.3713622 79.8893304 8.00371655"></polygon>
                <polygon id="Fill-7" fill="#FEFEFE" points="38.9726915 19.384474 38.9726915 8.00368149 38.9758425 8.00368149 40.9691904 8.00368149 40.9691904 19.384474 40.9676149 19.384474"></polygon>
                <path d="M48.863965,15.3324035 C48.863965,15.9797546 48.6568753,16.514218 48.2475974,16.9210693 C47.8372691,17.3289723 47.3017768,17.5358161 46.6563501,17.5358161 C46.0102232,17.5358161 45.4745558,17.3300241 45.0644026,16.9240492 C44.6554748,16.5186003 44.4483851,15.9830851 44.4483851,15.3324035 C44.4483851,14.6852278 44.6558249,14.1507644 45.0647527,13.7435625 C45.475256,13.3356595 46.0105733,13.1288157 46.6563501,13.1288157 C47.3017768,13.1288157 47.836744,13.3365359 48.2467221,13.7458413 C48.6565252,14.1554972 48.863965,14.6892595 48.863965,15.3324035 L48.863965,15.3324035 Z M50.7050153,11.4402338 L48.8910985,11.4402338 L48.8910985,12.2392119 C48.6626521,12.052176 48.4123239,11.8940632 48.1458906,11.7689052 C47.6422582,11.5326124 47.0819081,11.4128884 46.4804201,11.4128884 C45.2933742,11.4128884 44.3209453,11.7760921 43.590442,12.4921574 C42.857663,13.2106767 42.4858468,14.1614572 42.4858468,15.319432 C42.4858468,15.855473 42.5802013,16.3592604 42.7657593,16.8160697 C42.9521926,17.2767355 43.2331554,17.6958572 43.6018206,18.0629173 C43.983965,18.4390926 44.4282538,18.7300763 44.921733,18.9279802 C45.4136368,19.1257089 45.9379256,19.2258003 46.4804201,19.2258003 C47.0910109,19.2258003 47.6433085,19.1123868 48.1226083,18.8890655 C48.3638337,18.7761779 48.5947309,18.6327896 48.8014705,18.4620558 L48.8014705,19.384439 L50.6952123,19.384439 L50.7050153,11.4402338 Z" id="Fill-9" fill="#FEFEFE"></path>
                <path d="M35.6483676,11.9304011 C35.6483676,12.4688962 35.4516061,12.939203 35.0628096,13.3285251 C34.6743632,13.7180226 34.2041663,13.9154007 33.6663982,13.9154007 L31.0505558,13.9154007 L31.0505558,9.96082723 L33.6663982,9.96082723 C34.2041663,9.96082723 34.6743632,10.1582053 35.06386,10.5484039 C35.4519562,10.917217 35.6483676,11.3820897 35.6483676,11.9304011 M37.2902057,10.4041391 C37.083291,9.93383235 36.7997024,9.51576242 36.4471422,9.16132326 C36.0942319,8.80846172 35.6739256,8.5244897 35.1977768,8.31729529 C34.7200525,8.10939972 34.2048665,8.00369902 33.6663982,8.00369902 L29.0962451,8.00369902 L29.0962451,19.3844916 L31.0505558,19.3844916 L31.0505558,15.8723536 L33.6663982,15.8723536 C34.2055667,15.8723536 34.7207527,15.7666529 35.1977768,15.5589326 C35.6741007,15.3515629 36.0945821,15.0674156 36.4471422,14.714554 C36.7993523,14.3611666 37.0829409,13.9401167 37.2902057,13.4634995 C37.4974705,12.9853046 37.6030284,12.4695974 37.6030284,11.9304011 C37.6030284,11.3912048 37.4974705,10.8779517 37.2902057,10.4041391" id="Fill-11" fill="#FEFEFE"></path>
                <polygon id="Fill-13" fill="#F9BE00" points="9.41584245 15.633186 15.6075274 15.633186 15.6075274 9.43313007 9.41584245 9.43313007"></polygon>
                <path d="M6.4441488,21.6274849 L18.9603851,21.6274849 C20.4098381,21.6274849 21.5890066,20.4468975 21.5890066,18.9954849 L21.5890066,6.4623269 L18.7081313,6.4623269 L18.7081313,18.7427148 L6.4441488,18.7427148 L6.4441488,21.6274849 Z" id="Fill-15" fill="#FEFEFE"></path>
                <path d="M18.5789934,6.32381166 L18.5789934,3.4388662 L6.06275711,3.4388662 C4.61347921,3.4388662 3.43413567,4.6196289 3.43413567,6.07104149 L3.43413567,18.6040242 L6.31501094,18.6040242 L6.31501094,6.32381166 L18.5789934,6.32381166 Z" id="Fill-16" fill="#FEFEFE"></path>
                <polygon id="Fill-17" fill="#06B8DE" points="21.5889716 3.4388662 25.0231947 3.4388662 25.0231947 0 21.5889716 0"></polygon>
                <polygon id="Fill-18" fill="#E40265" points="0 25.0664914 3.43422319 25.0664914 3.43422319 21.6274499 0 21.6274499"></polygon>
            </g>
        </g>
    </g>
</svg>

<svg width="80" height="26" viewBox="0 0 80 26" xmlns="http://www.w3.org/2000/svg"><g fill="none" fill-rule="evenodd"><path d="M56.733 13.734V12.07l-2.14-.001-.002-2.28h-1.913v6.97c0 1.619.985 2.624 2.57 2.624h1.747v-1.741h-1.792c-.473 0-.61-.138-.61-.616v-3.293h2.14zm7.203 3.803a3.85 3.85 0 01-3.849-3.843 3.85 3.85 0 017.698 0 3.85 3.85 0 01-3.85 3.843m0-9.533c-3.266 0-5.924 2.552-5.924 5.69 0 3.138 2.658 5.69 5.925 5.69s5.925-2.552 5.925-5.69c0-3.138-2.658-5.69-5.925-5.69m13.984 0v7.438l-5.43-7.438H71V19.37h1.96l.01-7.619 5.423 7.62h1.495V8.003zm-38.947 11.38V8.004h1.996v11.38h-.001zm9.891-4.052c0 .648-.207 1.182-.616 1.59-.41.407-.946.614-1.592.614-.646 0-1.181-.206-1.592-.612-.409-.405-.616-.94-.616-1.592 0-.647.208-1.181.617-1.588.41-.408.946-.615 1.591-.615.646 0 1.18.208 1.59.617.41.41.618.943.618 1.586zm1.841-3.892h-1.814v.8a3.579 3.579 0 00-.745-.471 3.89 3.89 0 00-1.666-.356c-1.187 0-2.16.363-2.89 1.08-.732.718-1.104 1.668-1.104 2.826 0 .536.094 1.04.28 1.497.186.46.467.88.836 1.247a3.99 3.99 0 001.32.865 4.159 4.159 0 001.558.298c.611 0 1.163-.114 1.643-.337.24-.113.472-.256.678-.427v.922h1.894l.01-7.944zm-15.057.49c0 .539-.196 1.01-.585 1.399a1.915 1.915 0 01-1.397.586h-2.615V9.961h2.615c.538 0 1.008.197 1.398.587.388.37.584.834.584 1.382m1.642-1.526a4.086 4.086 0 00-.843-1.243 4.03 4.03 0 00-1.25-.844 3.814 3.814 0 00-1.53-.313h-4.57v11.38h1.954v-3.512h2.615c.54 0 1.055-.105 1.532-.313a4.028 4.028 0 001.25-.844c.351-.354.635-.775.842-1.252a3.83 3.83 0 00.313-1.533c0-.539-.106-1.052-.313-1.526" fill="#FEFEFE"/><path fill="#F9BE00" d="M9.416 15.633h6.192v-6.2H9.416z"/><path d="M6.444 21.627H18.96c1.45 0 2.629-1.18 2.629-2.632V6.462h-2.88v12.28H6.443v2.885zM18.579 6.324V3.439H6.063A2.633 2.633 0 003.434 6.07v12.533h2.881V6.324h12.264z" fill="#FEFEFE"/><path fill="#06B8DE" d="M21.589 3.439h3.434V0H21.59z"/><path fill="#E40265" d="M0 25.066h3.434v-3.439H0z"/></g></svg>
